app/dist/common/images/inmune-bio.svg

<svg height="18" viewBox="0 0 18 18" width="18" xmlns="http://www.w3.org/2000/svg"><path d="m0 0h18v18h-18z" fill="#f0f3fa"/><path d="m13.83 7.73a4.8 4.8 0 0 0 -9.29 1.67c0 1.97 1.2 3.66 2.9 4.4a5.02 5.02 0 0 1 1.56-9.8 5 5 0 0 1 4.83 3.73z" fill="#44b5d3"/><path d="m11.7 13a4.24 4.24 0 0 0 2.3-3.73 4.39 4.39 0 0 0 -4.5-4.27 4.39 4.39 0 0 0 -4.5 4.27 4.2 4.2 0 0 0 1.95 3.52 4.12 4.12 0 0 1 2.52-7.33 4.11 4.11 0 0 1 2.23 7.54z" fill="#0c53a1"/><path d="m7.44 8.2c0-.51.32-1.01.47-1.2-.25 1.17.42 2.2 1.44 3.2 1.01 1 1.65 2.05 1.65 2.78 0 1.32-1.56 1.92-2.1 2.02.9-.59 1.3-1.26 1.3-1.85 0-.58-.5-1.23-.85-1.64-1.35-1.6-1.91-2.66-1.91-3.3z" fill="#6dbc24"/><circle cx="9.5" cy="7.5" fill="#6dbc24" r=".5"/><path d="m7.76 12.69c0 .94.96 1.93 1.44 2.31-1.4-.48-2.2-1.62-2.2-2.8 0-1.17.95-2.79 2.66-4.17 2.06-1.65 2.15-3.37 1.95-4.03.13.2.39.72.39 1.24 0 1.35-.92 2.62-1.8 3.59-1.75 1.96-2.44 2.69-2.44 3.86z" fill="#3eb6ce"/></svg>

<!-- by TradingView --><svg width="18" height="18" viewBox="0 0 18 18" xmlns="http://www.w3.org/2000/svg"><path fill="#F0F3FA" d="M0 0h18v18H0z"/><path d="M13.83 7.73A4.8 4.8 0 0 0 4.54 9.4c0 1.97 1.2 3.66 2.9 4.4A5.02 5.02 0 0 1 9 4a5 5 0 0 1 4.83 3.73Z" fill="#44B5D3"/><path d="M11.7 13A4.24 4.24 0 0 0 14 9.27 4.39 4.39 0 0 0 9.5 5 4.39 4.39 0 0 0 5 9.27a4.2 4.2 0 0 0 1.95 3.52 4.12 4.12 0 0 1 2.52-7.33A4.11 4.11 0 0 1 11.7 13Z" fill="#0C53A1"/><path d="M7.44 8.2c0-.51.32-1.01.47-1.2-.25 1.17.42 2.2 1.44 3.2 1.01 1 1.65 2.05 1.65 2.78C11 14.3 9.44 14.9 8.9 15c.9-.59 1.3-1.26 1.3-1.85 0-.58-.5-1.23-.85-1.64C8 9.91 7.44 8.85 7.44 8.21Z" fill="#6DBC24"/><circle cx="9.5" cy="7.5" r=".5" fill="#6DBC24"/><path d="M7.76 12.69c0 .94.96 1.93 1.44 2.31C7.8 14.52 7 13.38 7 12.2c0-1.17.95-2.79 2.66-4.17 2.06-1.65 2.15-3.37 1.95-4.03.13.2.39.72.39 1.24 0 1.35-.92 2.62-1.8 3.59-1.75 1.96-2.44 2.69-2.44 3.86Z" fill="#3EB6CE"/></svg>
